assets/svg/keyboard_icon.svg

<svg fill="none" height="24" viewBox="0 0 24 24" width="24" xmlns="http://www.w3.org/2000/svg" xmlns:xlink="http://www.w3.org/1999/xlink"><clipPath id="a"><path d="m0 0h24v24h-24z"/></clipPath><g clip-path="url(#a)"><path d="m.57118 5.14062h22.85802c.3185 0 .5712.25267.5712.57119v12.57659c0 .3185-.2527.5712-.5712.5712h-22.85802c-.31852 0-.57118-.2527-.57118-.5712v-12.57659c0-.31852.25266-.57119.57118-.57119zm4.6572 9.14958v1.7135h-2.5812v-1.7135zm15.91582 0v1.7135h-2.5702v-1.7135zm-4.2068 0v1.7135h-10.07242v-1.7135zm-.8567-3.1524h1.7135v1.7135h-1.7135zm3.35 0h1.7135v1.7135h-1.7135zm-6.7112 0h1.7135v1.7135h-1.7135zm-3.35004 0h1.71354v1.7135h-1.71354zm-3.361 0h1.71352v1.7135h-1.71352zm13.42244-3.14137h1.7135v1.71352h-1.7135zm-3.35 0h1.7135v1.71352h-1.7135zm-3.361 0h1.7135v1.71352h-1.7135zm-3.35004 0h1.71354v1.71352h-1.71354zm-3.361 0h1.71352v1.71352h-1.71352zm-3.361 3.14137h1.72446v1.7135h-1.72446zm0-3.14137h1.72446v1.71352h-1.72446zm20.21004-1.71352h-21.71604v11.43419h21.71604z" fill="#000"/></g></svg>

<svg width="24" height="24" viewBox="0 0 24 24" fill="none" xmlns="http://www.w3.org/2000/svg">
<g clip-path="url(#clip0_529_1116)">
<path d="M0.57118 5.14062H23.4292C23.7477 5.14062 24.0004 5.39329 24.0004 5.71181V18.2884C24.0004 18.6069 23.7477 18.8596 23.4292 18.8596H0.57118C0.25266 18.8596 0 18.6069 0 18.2884V5.71181C0 5.39329 0.25266 5.14062 0.57118 5.14062ZM5.22838 14.2902V16.0037H2.64718V14.2902H5.22838ZM21.1442 14.2902V16.0037H18.574V14.2902H21.1442ZM16.9374 14.2902V16.0037H6.86498V14.2902H16.9374ZM16.0807 11.1378H17.7942V12.8513H16.0807V11.1378ZM19.4307 11.1378H21.1442V12.8513H19.4307V11.1378ZM12.7195 11.1378H14.433V12.8513H12.7195V11.1378ZM9.36946 11.1378H11.083V12.8513H9.36946V11.1378ZM6.00846 11.1378H7.72198V12.8513H6.00846V11.1378ZM19.4309 7.99643H21.1444V9.70995H19.4309V7.99643ZM16.0809 7.99643H17.7944V9.70995H16.0809V7.99643ZM12.7199 7.99643H14.4334V9.70995H12.7199V7.99643ZM9.36986 7.99643H11.0834V9.70995H9.36986V7.99643ZM6.00886 7.99643H7.72238V9.70995H6.00886V7.99643ZM2.64786 11.1378H4.37232V12.8513H2.64786V11.1378ZM2.64786 7.99643H4.37232V9.70995H2.64786V7.99643ZM22.8579 6.28291H1.14186V17.7171H22.8579V6.28291Z" fill="black"/>
</g>
<defs>
<clipPath id="clip0_529_1116">
<rect width="24" height="24" fill="white"/>
</clipPath>
</defs>
</svg>
